X: 396
T: Lord Nelson's Hornpipe
%R: reel
Z: 2014 John Chambers <jc:trillian.mit.edu>
B: Preston "Twenty four Country Dances for the Year 1800" p.178 #2
F: http://www.vwml.org/browse/browse-collections-dance-tune-books/browse-prestons1800# 2014-8-10
M: C
L: 1/8
K: Bb
de |\
fdge dcec | BAcA B2df |\
gebg gfed | dcec BAGF |\
fdge dcec |
BAcA Bbge |\
dcec BAcA | B2B2 B2 :: de |\
fabg gfed | gfga b2ba |
gfed cBAG | F2F2 F2BA |\
GBcA Bdfd | egbg fdge |\
dcec BAcA | B2B2 B2 :|
% - - - - - - - - - - - - - - - - - - - - - - - - -
%%begintext align
%% 1st & 2d Cu: set all four and cast of 2 Cu: .|
%% set all four with the 3d Cu & cast up to the top
%% :| lead down the middle, up again and Allemand
%% once round :|. Hands 6 once round :|:
%%endtext
% - - - - - - - - - - - - - - - - - - - - - - - - -

%%sep 1 1 500
%%sep 1 1 500
